packages/ffe-icons/icons/filled/sm/compare.svg

<svg xmlns="http://www.w3.org/2000/svg" height="20" viewBox="0 -960 960 960" width="20"><path d="M428.001-164.001H228.309q-27.008 0-45.658-18.65-18.65-18.65-18.65-45.658v-503.382q0-27.008 18.65-45.658 18.65-18.65 45.658-18.65h199.692v-74.616q0-11.069 7.405-18.534 7.405-7.465 18.384-7.465 10.98 0 18.595 7.465Q480-881.684 480-870.615v781.23q0 11.069-7.405 18.534-7.404 7.465-18.384 7.465-10.979 0-18.594-7.465-7.616-7.465-7.616-18.534v-74.616ZM217-216h211.001v-250.848L217-216Zm335 51.999V-443l192 228v-516.691q0-4.616-3.846-8.463-3.847-3.846-8.463-3.846H552v-51.999h179.691q27.008 0 45.658 18.65 18.65 18.65 18.65 45.658v503.382q0 27.008-18.65 45.658-18.65 18.65-45.658 18.65H552Z"/></svg>

<svg xmlns="http://www.w3.org/2000/svg" height="20" viewBox="0 -960 960 960" width="20"><path d="M428-164H228.31q-27.01 0-45.66-18.65Q164-201.3 164-228.31v-503.38q0-27.01 18.65-45.66Q201.3-796 228.31-796H428v-74.61q0-11.07 7.41-18.54 7.4-7.46 18.38-7.46 10.98 0 18.59 7.46 7.62 7.47 7.62 18.54v781.22q0 11.07-7.4 18.54-7.41 7.46-18.39 7.46t-18.59-7.46Q428-78.32 428-89.39V-164Zm-211-52h211v-250.85L217-216Zm335 52v-279l192 228v-516.69q0-4.62-3.85-8.46-3.84-3.85-8.46-3.85H552v-52h179.69q27.01 0 45.66 18.65Q796-758.7 796-731.69v503.38q0 27.01-18.65 45.66Q758.7-164 731.69-164H552Z"/></svg>
